<?xml version="1.0" encoding="UTF-8"?>
<map version="1.10" tiledversion="1.12.2" orientation="orthogonal" renderorder="right-down" width="12" height="12" tilewidth="300" tileheight="300" infinite="0" nextlayerid="19" nextobjectid="22">
 <tileset firstgid="1" source="C:/Program Files/Tiled/tilesets/16 Board.tsx"/>
 <tileset firstgid="13" source="C:/Program Files/Tiled/tilesets/05 Board.tsx"/>
 <tileset firstgid="25" source="C:/Program Files/Tiled/tilesets/05 Pits.tsx"/>
 <tileset firstgid="53" source="C:/Program Files/Tiled/tilesets/05 Push.tsx"/>
 <tileset firstgid="68" source="C:/Program Files/Tiled/tilesets/05A.tsx"/>
 <tileset firstgid="103" source="C:/Program Files/Tiled/tilesets/05B.tsx"/>
 <tileset firstgid="133" source="C:/Program Files/Tiled/tilesets/5e_Exp1.tsx"/>
 <tileset firstgid="233" source="C:/Program Files/Tiled/tilesets/16a.tsx"/>
 <tileset firstgid="268" source="C:/Program Files/Tiled/tilesets/Ledges.tsx"/>
 <tileset firstgid="304" source="C:/Program Files/Tiled/tilesets/Open Floor.tsx"/>
 <tileset firstgid="334" source="C:/Program Files/Tiled/tilesets/Water.tsx"/>
 <tileset firstgid="359" source="C:/Program Files/Tiled/tilesets/Gravel.tsx"/>
 <tileset firstgid="384" source="C:/Program Files/Tiled/tilesets/Sand.tsx"/>
 <tileset firstgid="409" source="C:/Program Files/Tiled/tilesets/Grass.tsx"/>
 <tileset firstgid="445" source="C:/Program Files/Tiled/tilesets/RallyX.tsx"/>
 <tileset firstgid="461" source="C:/Program Files/Tiled/tilesets/Flaming Oil.tsx"/>
 <tileset firstgid="491" source="C:/Program Files/Tiled/tilesets/Cliffs.tsx"/>
 <tileset firstgid="507" source="C:/Program Files/Tiled/tilesets/Grass (M).tsx"/>
 <tileset firstgid="523" source="C:/Program Files/Tiled/tilesets/Bollards.tsx"/>
 <tileset firstgid="565" source="C:/Program Files/Tiled/tilesets/RallyXA.tsx"/>
 <layer id="1" name="Floor" width="12" height="12">
  <data encoding="csv">
1,599,599,599,599,599,599,599,599,599,599,10,
599,599,599,599,599,599,599,599,599,599,599,13,
599,599,599,599,599,599,599,599,599,599,13,13,
408,408,408,13,13,13,13,13,13,383,383,409,
408,408,408,408,408,408,383,383,383,383,383,409,
409,408,408,134,134,408,409,383,383,409,383,409,
409,408,409,134,134,409,409,383,383,383,383,383,
408,408,135,134,134,408,408,408,383,383,383,383,
408,408,408,408,408,408,408,383,383,383,383,409,
408,408,408,383,13,13,13,13,383,383,383,383,
13,13,13,13,13,13,13,13,13,13,13,13,
8,13,13,13,13,13,13,13,13,13,13,12
</data>
 </layer>
 <layer id="7" name="Template" width="12" height="12" visible="0">
  <data encoding="csv">
2684354635,0,0,0,2684354656,0,0,2684354656,0,0,0,3221225547,
0,0,0,0,0,0,0,0,0,0,0,0,
0,0,0,0,0,0,0,0,0,0,0,0,
0,0,0,0,0,0,0,0,0,0,0,0,
0,0,0,0,0,0,0,0,0,0,0,0,
0,0,0,0,0,0,0,0,0,0,0,0,
0,0,0,0,0,0,0,0,0,0,0,0,
0,0,0,0,0,0,0,0,0,0,0,0,
0,0,0,0,0,0,0,0,0,0,0,0,
0,0,0,0,0,0,0,0,0,0,0,0,
0,0,0,0,0,0,0,0,0,0,0,0,
75,3221225540,0,0,1610612832,0,0,1610612832,0,0,68,1610612811
</data>
 </layer>
 <layer id="18" name="Terrain" width="12" height="12">
  <data encoding="csv">
0,0,0,0,0,0,0,0,0,0,0,0,
0,0,0,0,0,0,0,0,0,0,0,0,
0,0,0,0,0,0,0,0,0,0,0,0,
0,0,0,0,0,0,0,0,0,0,0,0,
0,0,0,0,0,0,0,0,0,0,0,0,
0,0,0,0,0,0,0,0,0,0,0,0,
0,0,0,0,0,0,0,0,0,0,0,0,
0,0,0,0,0,0,0,0,0,0,0,0,
0,0,0,0,0,0,0,0,0,0,0,0,
0,0,0,0,0,0,0,0,378,0,0,0,
0,0,0,0,0,0,0,0,0,0,0,0,
0,0,0,0,0,0,0,0,0,0,0,0
</data>
 </layer>
 <layer id="15" name="Ledges" width="12" height="12">
  <data encoding="csv">
0,0,0,0,0,0,0,0,0,0,0,0,
0,0,0,0,0,0,0,0,0,0,0,0,
0,0,0,0,0,0,0,0,0,0,0,0,
0,0,0,0,0,0,0,0,0,0,0,0,
0,0,0,0,0,0,0,0,0,0,0,0,
0,0,0,0,0,0,0,0,0,0,0,0,
0,0,0,0,0,0,0,0,0,0,0,0,
0,0,0,0,0,0,0,0,0,0,0,0,
0,0,0,0,0,0,0,0,0,0,0,0,
0,0,0,0,0,0,0,0,0,0,0,0,
0,0,0,0,0,0,0,0,0,0,0,0,
0,0,0,0,0,0,0,0,0,0,0,0
</data>
 </layer>
 <layer id="16" name="Ledges 1" width="12" height="12">
  <data encoding="csv">
0,0,0,0,0,0,0,0,0,0,0,0,
0,0,0,0,0,0,0,0,0,0,0,0,
0,0,0,0,0,0,0,0,0,0,0,0,
0,0,0,0,0,0,0,0,0,0,0,0,
0,0,0,0,0,0,0,0,0,0,0,0,
0,0,0,0,0,0,0,0,0,0,0,0,
0,0,0,0,0,0,0,0,0,0,0,0,
0,0,0,0,0,0,0,0,0,0,0,0,
0,0,0,0,0,0,0,0,0,0,0,0,
0,0,0,408,0,0,0,0,0,0,0,0,
0,0,0,0,0,0,0,0,0,0,0,0,
0,0,0,0,0,0,0,0,0,0,0,0
</data>
 </layer>
 <layer id="2" name="Convey/Spin/Pit/Repair/Portal" width="12" height="12">
  <data encoding="csv">
263,3221226037,0,566,576,3221226044,2684355132,0,3221226038,0,565,263,
0,3221226037,447,1610613319,1610613302,1610613302,1610613302,1610613302,3221226055,447,565,599,
0,3221226044,2684355125,3758096956,0,0,0,78,2147484220,2684355125,2684355132,599,
0,0,0,3221226044,2684355125,2684355125,2684355125,2684355125,2684355132,0,0,0,
0,0,0,0,0,0,0,0,0,0,0,0,
0,0,0,0,0,0,0,0,0,506,0,451,
451,0,0,0,0,0,0,0,0,0,0,0,
0,0,0,0,0,0,0,0,0,0,0,0,
0,0,0,0,0,0,0,0,0,0,0,0,
448,0,0,448,76,2684354629,2684354629,2684354636,448,0,0,448,
2684354629,2684354629,2684354629,2684354629,3758096460,78,0,1073741900,2684354629,2684354629,536870995,2684354629,
263,0,0,2147483723,2684354628,3758096459,2147483723,2684354628,3758096459,0,69,263
</data>
 </layer>
 <layer id="17" name="Ledges 2" width="12" height="12">
  <data encoding="csv">
0,0,0,0,0,0,0,0,0,0,0,0,
0,0,0,0,0,0,0,0,0,0,0,0,
0,0,0,0,0,0,0,0,0,0,0,0,
0,0,0,0,0,0,0,0,0,0,0,0,
0,0,0,0,0,0,0,0,0,0,0,0,
0,0,0,0,0,0,0,0,0,0,0,0,
0,0,0,0,0,0,0,0,0,0,0,0,
0,0,0,0,0,0,0,0,0,0,0,0,
0,0,0,0,0,0,0,0,0,0,0,0,
0,0,0,0,0,0,0,0,0,0,0,0,
0,0,0,0,0,0,0,0,0,0,0,0,
0,0,0,0,0,0,0,0,0,0,0,0
</data>
 </layer>
 <layer id="8" name="Crushers" width="12" height="12">
  <data encoding="csv">
0,0,0,0,0,0,0,0,0,0,0,0,
0,0,0,0,0,0,0,0,0,0,0,0,
0,0,0,0,0,0,0,0,0,0,0,0,
0,0,0,0,0,0,0,0,0,0,0,0,
0,0,0,0,0,0,0,0,0,0,0,0,
0,0,0,0,0,0,0,0,0,0,0,0,
0,0,0,0,0,0,0,0,0,0,0,0,
0,0,0,0,0,0,0,0,0,0,0,0,
0,0,0,0,0,0,0,0,0,0,0,0,
0,0,0,0,0,0,0,0,0,0,0,0,
0,0,0,0,0,0,0,0,0,0,0,0,
0,0,0,0,0,0,0,0,0,0,0,0
</data>
 </layer>
 <layer id="3" name="Lasers/Pushers/Flame" width="12" height="12">
  <data encoding="csv">
0,0,0,0,2684355148,0,0,0,0,0,0,0,
0,0,0,0,0,0,0,0,0,0,0,0,
588,0,0,0,0,0,0,0,0,0,0,3221226060,
0,3221226008,0,0,0,0,0,0,0,0,3221226008,0,
0,0,0,0,0,3221226008,3221226008,0,0,0,0,0,
0,0,0,0,0,0,0,0,0,0,0,0,
0,0,0,0,0,0,0,0,0,0,0,0,
0,0,0,0,0,0,0,0,0,0,0,0,
0,0,0,0,0,536,536,0,0,0,0,0,
0,536,0,0,0,0,0,0,0,0,536,0,
0,0,0,0,0,0,0,0,0,0,0,0,
0,0,0,0,1610613317,0,0,1610613324,0,0,0,0
</data>
 </layer>
 <layer id="4" name="Flame/Crusher 1" width="12" height="12">
  <data encoding="csv">
0,0,0,0,0,0,0,0,0,0,0,0,
0,0,0,0,0,0,0,0,0,0,0,0,
0,0,0,0,0,0,0,0,0,0,0,0,
0,538,0,0,0,0,0,0,0,0,538,0,
0,0,0,0,0,531,531,0,0,0,0,0,
0,0,0,0,0,0,0,0,0,0,0,0,
0,0,0,0,0,0,0,0,0,0,0,0,
0,0,0,0,0,0,0,0,0,0,0,0,
0,0,0,0,0,540,540,0,0,0,0,0,
0,533,0,0,0,0,0,0,0,0,533,0,
0,0,0,0,0,0,0,0,0,0,0,0,
0,0,0,0,0,0,0,0,0,0,0,0
</data>
 </layer>
 <layer id="11" name="Flame/Crusher 2" width="12" height="12">
  <data encoding="csv">
0,0,0,0,0,0,0,0,0,0,0,0,
0,0,0,0,0,0,0,0,0,0,0,0,
0,0,0,0,0,0,0,0,0,0,0,0,
0,545,0,0,0,0,0,0,0,0,545,0,
0,0,0,0,0,545,545,0,0,0,0,0,
0,0,0,0,0,0,0,0,0,0,0,0,
0,0,0,0,0,0,0,0,0,0,0,0,
0,0,0,0,0,0,0,0,0,0,0,0,
0,0,0,0,0,554,554,0,0,0,0,0,
0,547,0,0,0,0,0,0,0,0,561,0,
0,0,0,0,0,0,0,0,0,0,0,0,
0,0,0,0,0,0,0,0,0,0,0,0
</data>
 </layer>
 <layer id="12" name="Flame/Crusher 3" width="12" height="12">
  <data encoding="csv">
0,0,0,0,0,0,0,0,0,0,0,0,
0,0,0,0,0,0,0,0,0,0,0,0,
0,0,0,0,0,0,0,0,0,0,0,0,
0,552,0,0,0,0,0,0,0,0,552,0,
0,0,0,0,0,559,559,0,0,0,0,0,
0,0,0,0,0,0,0,0,0,0,0,0,
0,0,0,0,0,0,0,0,0,0,0,0,
0,0,0,0,0,0,0,0,0,0,0,0,
0,0,0,0,0,0,0,0,0,0,0,0,
0,561,0,0,0,0,0,0,0,0,547,0,
0,0,0,0,0,0,0,0,0,0,0,0,
0,0,0,0,0,0,0,0,0,0,0,0
</data>
 </layer>
 <layer id="5" name="Walls" width="12" height="12">
  <data encoding="csv">
0,0,0,0,2684354821,0,0,2684354821,0,0,0,0,
0,0,0,0,0,0,0,0,0,0,0,0,
261,0,0,0,0,0,0,0,0,0,0,3221225733,
0,0,0,0,0,0,0,0,0,0,0,0,
0,0,0,0,0,0,0,0,0,0,0,0,
0,0,0,0,0,0,0,0,0,0,0,0,
0,0,0,0,0,0,0,0,0,0,0,0,
0,0,0,0,0,0,0,0,0,0,0,0,
0,0,0,0,0,0,0,0,0,0,0,0,
0,0,0,0,0,0,0,0,0,0,0,0,
0,0,0,0,0,0,0,0,0,0,0,0,
0,0,0,0,1610612997,0,0,1610612997,0,0,0,0
</data>
 </layer>
 <layer id="6" name="Walls2" width="12" height="12">
  <data encoding="csv">
0,0,0,0,0,0,0,0,0,0,0,0,
0,0,0,0,0,0,0,0,0,0,0,0,
0,0,0,0,0,0,0,0,0,0,0,0,
0,0,0,0,0,0,0,0,0,0,0,0,
0,0,0,0,0,0,0,0,0,0,0,0,
0,0,0,0,0,0,0,0,0,0,0,0,
0,0,0,0,0,0,0,0,0,0,0,0,
0,0,0,0,0,0,0,0,0,0,0,0,
0,0,0,0,0,0,0,0,0,0,0,0,
0,0,0,0,0,0,0,0,0,0,0,0,
0,0,0,0,0,0,0,0,0,0,0,0,
0,0,0,0,0,0,0,0,0,0,0,0
</data>
 </layer>
 <objectgroup id="14" name="Text">
  <object id="21" x="2682.55" y="3279.31" width="312.745" height="300">
   <text fontfamily="Gill Sans" pixelsize="44" wrap="1" halign="center" valign="center">CAPSTONE</text>
  </object>
 </objectgroup>
</map>
